X: 39245
T: Taflwn Yr Hosan
R: slip jig
M: 9/8
K: Gmajor
|:G2 G GAG FED|G2 G GG/A/B cBA|G2 G GAG F2 D|E2 E EFG A2 D:|
|:Bdc BAG AFD|B/c/dc BAG c2 A|Bdc BAG F2 D|E2 E EFG A2 D:|
K: Dmaj
|:d2 d ded c2 A|d2 d def gfe|dcd ded cBA|B2 B Bcd e2 c:|
|:f/g/ag fed cBA|fag f>ed ee/f/g|fag fed c2 A|B>cB BB/c/d ecA:|

